svgs/sharp-regular/anchor-circle-check.svg

<svg xmlns="http://www.w3.org/2000/svg" viewBox="0 0 640 512"><!--! Font Awesome Pro 6.6.0 by @fontawesome - https://fontawesome.com License - https://fontawesome.com/license (Commercial License) Copyright 2024 Fonticons, Inc. --><path d="M320 80a32 32 0 1 1 -64 0 32 32 0 1 1 64 0zM288 0c-44.2 0-80 35.8-80 80c0 35.9 23.7 66.3 56.3 76.4c-.2 1.2-.3 2.4-.3 3.6l0 32-48 0-24 0 0 48 24 0 48 0 0 224-144 0 0-112 72 0L96 256 0 352l72 0 0 136 0 24 24 0 192 0 106.8 0c-18.3-12.9-34.1-29.2-46.3-48L312 464l0-224 48 0 15.2 0c2.8-2.7 5.8-5.3 8.8-7.8l0-40.2-24 0-48 0 0-32c0-1.2-.1-2.4-.3-3.6C344.3 146.3 368 115.9 368 80c0-44.2-35.8-80-80-80zM640 368a144 144 0 1 0 -288 0 144 144 0 1 0 288 0zm-65.4-32l-11.3 11.3-72 72L480 430.6l-11.3-11.3-40-40L417.4 368 440 345.4l11.3 11.3L480 385.4l60.7-60.7L552 313.4 574.6 336z"/></svg>

<svg xmlns="http://www.w3.org/2000/svg" viewBox="0 0 640 512"><!--! Font Awesome Pro 6.4.2 by @fontawesome - https://fontawesome.com License - https://fontawesome.com/license (Commercial License) Copyright 2023 Fonticons, Inc. --><path d="M320 80a32 32 0 1 1 -64 0 32 32 0 1 1 64 0zM288 0c-44.2 0-80 35.8-80 80c0 35.9 23.7 66.3 56.3 76.4c-.2 1.2-.3 2.4-.3 3.6v32H216 192v48h24 48V464H120V352h72L96 256 0 352H72V488v24H96 288 394.8c-18.3-12.9-34.1-29.2-46.3-48H312V240h48 15.2c2.8-2.7 5.8-5.3 8.8-7.8V192H360 312V160c0-1.2-.1-2.4-.3-3.6C344.3 146.3 368 115.9 368 80c0-44.2-35.8-80-80-80zM640 368a144 144 0 1 0 -288 0 144 144 0 1 0 288 0zm-65.4-32l-11.3 11.3-72 72L480 430.6l-11.3-11.3-40-40L417.4 368 440 345.4l11.3 11.3L480 385.4l60.7-60.7L552 313.4 574.6 336z"/></svg>
